packages/core/src/svgs/op.svg

<svg width="24" height="24" viewBox="0 0 24 24" fill="none" xmlns="http://www.w3.org/2000/svg">
<g clip-path="url(#clip0_31_15469)">
<path d="M24 0H0V24H24V0Z" fill="#FE0420"/>
<path fill-rule="evenodd" clip-rule="evenodd" d="M4.73092 15.6526C5.32132 16.0748 6.07878 16.2859 7.00325 16.2859C8.12195 16.2859 9.01531 16.0333 9.68345 15.5282C10.3515 15.0155 10.8215 14.2427 11.0934 13.2097C11.2566 12.5764 11.3964 11.9242 11.513 11.2532C11.5518 11.0119 11.5712 10.8121 11.5712 10.6538C11.5712 10.126 11.4353 9.67362 11.1634 9.29665C10.8915 8.9121 10.5186 8.6256 10.0447 8.43711C9.57078 8.24108 9.03476 8.14307 8.43656 8.14307C6.23803 8.14307 4.87462 9.17978 4.34636 11.2532C4.15991 12.0147 4.01619 12.6669 3.9152 13.2097C3.87636 13.451 3.85693 13.6546 3.85693 13.8204C3.85693 14.6121 4.14826 15.2229 4.73092 15.6526ZM8.93765 13.1419C8.71453 14.0079 8.09906 14.5716 7.1664 14.5716C6.24373 14.5716 5.92822 13.9476 6.09429 13.1419C6.23413 12.4105 6.37398 11.7923 6.51382 11.2871C6.75476 10.3518 7.32022 9.85735 8.28506 9.85735C9.20362 9.85735 9.50538 10.4725 9.34552 11.2871C9.25226 11.8149 9.11632 12.4331 8.93765 13.1419ZM12.4689 16.2045C12.5142 16.2588 12.5784 16.2859 12.6615 16.2859H14.2031C14.2787 16.2859 14.3505 16.2588 14.4184 16.2045C14.4864 16.1502 14.528 16.0804 14.5431 15.9951L15.0301 13.7145H16.5986C17.5885 13.7145 18.363 13.2343 18.9298 12.8078C19.5041 12.3812 19.8857 11.7221 20.0746 10.8302C20.12 10.6208 20.1426 10.4192 20.1426 10.2253C20.1426 9.55062 19.8857 9.03492 19.3719 8.67818C18.8655 8.32144 18.193 8.14307 17.3542 8.14307H14.3391C14.2636 8.14307 14.1918 8.1702 14.1237 8.2245C14.0558 8.2788 14.0142 8.34857 13.9991 8.4339L12.4348 15.9951C12.4197 16.0727 12.4311 16.1424 12.4689 16.2045ZM17.9776 10.8069C17.8365 11.4297 17.2933 12.0002 16.6556 12.0002H15.3521L15.8013 9.85735H17.1615C17.6246 9.85735 18.0117 9.94864 18.0117 10.458C18.0117 10.5588 18.0003 10.6751 17.9776 10.8069Z" fill="white"/>
</g>
<defs>
<clipPath id="clip0_31_15469">
<rect width="24" height="24" fill="white"/>
</clipPath>
</defs>
</svg>

<svg xmlns="http://www.w3.org/2000/svg" width="24" height="24" fill="none" viewBox="0 0 24 24"><g clip-path="url(#a)"><path fill="#FE0420" d="M24 0H0v24h24z"/><path fill="#fff" fill-rule="evenodd" d="M4.73 15.653q.887.633 2.273.633 1.678 0 2.68-.758 1.003-.769 1.41-2.318.245-.95.42-1.957.058-.36.058-.6 0-.791-.408-1.356a2.43 2.43 0 0 0-1.118-.86q-.711-.294-1.608-.294-3.298 0-4.09 3.11-.28 1.143-.432 1.957a4 4 0 0 0-.058.61q0 1.188.874 1.833m4.208-2.511c-.223.866-.839 1.43-1.772 1.43-.922 0-1.238-.624-1.072-1.43q.21-1.097.42-1.855c.24-.935.806-1.43 1.771-1.43.919 0 1.22.616 1.06 1.43q-.14.792-.407 1.855m3.53 3.063q.069.08.194.08h1.541a.34.34 0 0 0 .215-.08.33.33 0 0 0 .125-.21l.487-2.28H16.6c.99 0 1.764-.48 2.33-.907q.862-.64 1.146-1.978.068-.314.068-.605 0-1.011-.771-1.547-.76-.535-2.018-.535H14.34a.34.34 0 0 0-.215.082.34.34 0 0 0-.125.209l-1.564 7.561a.28.28 0 0 0 .034.21m5.51-5.398c-.142.623-.685 1.193-1.322 1.193h-1.304l.45-2.143h1.36c.463 0 .85.092.85.601q0 .15-.034.349" clip-rule="evenodd"/></g><defs><clipPath id="a"><path fill="#fff" d="M0 0h24v24H0z"/></clipPath></defs></svg>
